X:1
T:Title
%%score { ( 1 4 ) | ( 2 3 ) }
L:1/8
M:4/4
K:D
V:1 treble nm="Grand Piano"
V:4 treble 
V:2 bass 
V:3 bass 
V:1
 z4 z2[Q:1/4=100] FG | [DFA]2 [DFA]2 [DFA]2 G-[Gc] | [Fd]3 [FA] [FA]2 [FA]2 | B2 B2 Bc .[Fd]2 | %4
[M:17/16] [DFA]-<[DFA][B,D^G]-<[B,DG][A,CA]/-[A,CA]/-[A,CA]/-[A,CA]/-[A,CA]/-[A,CA]-<[A,CA] | %5
[M:1/8] [CGA] |[M:4/4] [FA]2 [FA]2 [Fd]2 [Fd]2 | %7
[M:19/16] e-<ec-<c[Fd]/-[Fd]/-[Fd]/-[Fd]/-[Fd]/-[Fd]-<[Fd][FA] | %8
[M:4/4] [Fd]2 [DFA]2 [DGB]2 [B,DG]2 |[M:3/4][K:bass] [G,CE]3 [F,D] [F,D]2 | %10
[M:1/4][K:treble] [A,FA]2 |[M:4/4] [A,FA]2 [A,FA]2 [A,FA]2 [A,DF]2 | [DF]3 [CE] [CE]2 [CE]2 | %13
 [DF]2 [FA]2 [GB]2 [FA]2 |[M:3/4] [Ec]3 [^GB] [EA]2 |[M:1/4] [GA]2 | %16
[M:4/4] [FA]2 [FA]2 [GB]2 [Gc]2 | [Fd]3 [FA] [FA]2 [FA]2 | [GB]2 [FA]2 [FA]2 [DF]2 | %19
[M:3/4] [CE]3 [CE] [A,D]2 |] %20
V:2
 z4 z2 DE | D,2 D,2 D,2 z ^A, | [D,A,]3 [D,D] [D,D]2 [D,D]2 | [G,DG]2 [G,DG]2 [DG]-[E,DG] z B | %4
[M:17/16][K:bass] D,-<D,E,-<E,A,,/-A,,/-A,,/-A,,/-A,,/-A,,-<A,, |[M:1/8] A,, | %6
[M:4/4] [D,D]2 [D,D]2 [D,A,]2 [D,A,]2 | %7
[M:19/16][K:treble] [A,G]-<[A,G][A,G]-<[A,G][K:bass][D,A,]/-[D,A,]/-[D,A,]/-[D,A,]/-[D,A,]/-[D,A,]-<[D,A,][D,D] | %8
[M:4/4] [D,A,]2 D,2 G,2 G,,2 |[M:3/4] A,,3 D, D,2 |[M:1/4] D,2 |[M:4/4] D,2 D,2 D,2 D,2 | %12
 [A,,A,]3 [A,,A,] [A,,A,]2 [A,,A,]2 | [D,A,]2 [D,D]2 [D,D]2 [D,D]2 |[M:3/4] [E,A,]3 [E,D] [A,C]2 | %15
[M:1/4] [A,C]2 |[M:4/4] [D,D]2 [D,D]2 [G,D]2 [E,A,]2 | [D,A,]3 [D,D] [D,D]2 [D,D]2 | %18
 [D,D]2 [D,D]2 [D,D]2 [D,A,]2 |[M:3/4] [A,,G,]3 [A,,G,] [D,F,]2 |] %20
V:3
 z4 z2 [D,A,]2 | z4 z2 D,2 | x8 | z4 .G,2 [D,A,]2 |[M:17/16][K:bass] x17/2 |[M:1/8] x |[M:4/4] x8 | %7
[M:19/16][K:treble] x4[K:bass] x11/2 |[M:4/4] x8 |[M:3/4] x6 |[M:1/4] x2 |[M:4/4] x8 | x8 | x8 | %14
[M:3/4] x6 |[M:1/4] x2 |[M:4/4] x8 | x8 | x8 |[M:3/4] x6 |] %20
V:4
 x8 | z4 z2 .[B,B]2 | x8 | x8 |[M:17/16] x17/2 |[M:1/8] x |[M:4/4] x8 |[M:19/16] x19/2 | %8
[M:4/4] x8 |[M:3/4][K:bass] x6 |[M:1/4][K:treble] x2 |[M:4/4] x8 | x8 | x8 |[M:3/4] x6 | %15
[M:1/4] x2 |[M:4/4] x8 | x8 | x8 |[M:3/4] x6 |] %20

